X:5038
T:The Galway Express
M:4/4
L:1/8
Q:180
C:Aidan Crossey
R:Hornpipe
K:D
|:FG|A2f2 fedB|BAAB A2FG|A2f2 fede|fg/f/ef e2FG|
A2f2 fedB|BAAB A2FA|BcdB cdef|fgec d2:||
|:fg|afdf gece|defd BdAd|GeFd EcFA|Bcde f/e/dBA|
afdf gece|defd BddB|AFDF GEBc|d2 dd d2:||
